svgs/thin/file-check.svg

<svg xmlns="http://www.w3.org/2000/svg" viewBox="0 0 384 512"><!--! Font Awesome Pro 6.3.0 by @fontawesome - https://fontawesome.com License - https://fontawesome.com/license (Commercial License) Copyright 2023 Fonticons, Inc. --><path d="M117.7 314.3c-3.125-3.125-8.188-3.125-11.31 0s-3.125 8.188 0 11.31l64 64C171.8 391.2 173.9 392 175.1 392h.4375c2.281-.125 4.391-1.219 5.812-3l96-120c2.75-3.438 2.203-8.5-1.25-11.25C273.6 255 268.5 255.6 265.7 259l-90.41 113L117.7 314.3zM374.6 150.6l-141.3-141.3C227.4 3.371 219.2 0 210.7 0H64C28.65 0 0 28.65 0 64l.0065 384c0 35.34 28.65 64 64 64H320c35.35 0 64-28.66 64-64V173.3C384 164.8 380.6 156.6 374.6 150.6zM224 22.63L361.4 160H248C234.8 160 224 149.2 224 136V22.63zM368 448c0 26.47-21.53 48-48 48H64c-26.47 0-48-21.53-48-48V64c0-26.47 21.53-48 48-48h144v120c0 22.06 17.94 40 40 40h120V448z"/></svg>

<svg xmlns="http://www.w3.org/2000/svg" viewBox="0 0 384 512"><!-- Font Awesome Pro 6.0.0-alpha2 by @fontawesome - https://fontawesome.com License - https://fontawesome.com/license (Commercial License) --><path d="M117.654 314.344C114.529 311.219 109.467 311.219 106.342 314.344S103.217 322.531 106.342 325.656L170.342 389.656C171.842 391.156 173.889 392 175.998 392C176.139 392 176.295 392 176.436 392C178.717 391.875 180.826 390.781 182.248 389L278.248 269C280.998 265.562 280.451 260.5 276.998 257.75C273.561 255 268.529 255.562 265.748 259L175.342 372.031L117.654 314.344ZM374.629 150.625L233.371 9.375C227.371 3.371 219.23 0 210.746 0H64C28.652 0 0 28.652 0 64V448C0 483.344 28.652 512 64 512H320C355.348 512 384 483.344 384 448V173.254C384 164.766 380.629 156.629 374.629 150.625ZM224 22.629L361.375 160H248C234.781 160 224 149.234 224 136V22.629ZM368 448C368 474.469 346.469 496 320 496H64C37.531 496 16 474.469 16 448V64C16 37.531 37.531 16 64 16H208V136C208 158.062 225.938 176 248 176H368V448Z"/></svg>
